icon-themes/sifr_svg/sc/res/lc26047.svg

<svg viewBox="0 0 24 24" xmlns="http://www.w3.org/2000/svg"><path d="m15.126953 3c-2.602428 0-5.1788322 2.03265-5.7167968 4.5l-.78125 3.5h-.78125c-.86159 0-1.6910944.669001-1.84375 1.5-.1533305.830991.41966 1.5 1.28125 1.5h.6875l-.53125 2.5c-.1845701.84614-1.0137858 1.5-1.90625 1.5-.8924361 0-1.4657452-.65386-1.28125-1.5l.34375-1.5h-1.59375c-.7872259-.000938-1.6858531.498216-1.9042968 1.5-.53797365 2.46735 1.1768961 4.5 3.7792968 4.5 2.6024287 0 5.1788238-2.03265 5.7167968-4.5l.5625-2.5h1c.861562 0 1.691094-.669009 1.84375-1.5.15334-.830999-.419688-1.5-1.28125-1.5h-.90625l.75-3.5c.184495-.8461406 1.013794-1.5 1.90625-1.5.892445 0 1.434486.6538594 1.25 1.5l-.3125 1.5h1.59375c.787226.0009375 1.685853-.4982062 1.904297-1.5.537964-2.46735-1.176896-4.5-3.779297-4.5zm-.125 8 2.84375 5.1875-.34375.65625c-.891535.207186-1.853604 1.065844-2.28125 2.0625-.493846 1.150585-.112506 2.09375.875 2.09375.987374 0 2.191851-.943165 2.685547-2.09375.09497-.221137.156438-.425032.1875-.625l1.5 2.71875h2.53125l-2.84375-5.21875.3125-.65625c.899006-.196267 1.880383-1.055766 2.3125-2.0625.493902-1.150603.112429-2.0625-.875-2.0625-.987458 0-2.193645.911897-2.6875 2.0625-.102619.239044-.159316.473656-.1875.6875l-1.529297-2.75z" fill="#555753"/></svg>

<svg xmlns="http://www.w3.org/2000/svg" viewBox="0 0 24 24">
  <path
     style="fill:#555753"
     d="M 15.126953,3 C 12.524525,3 9.9481208,5.03265 9.4101562,7.5 l -0.78125,3.5 h -0.78125 c -0.86159,0 -1.6910944,0.669001 -1.84375,1.5 -0.1533305,0.830991 0.41966,1.5 1.28125,1.5 h 0.6875 l -0.53125,2.5 C 7.2568361,17.34614 6.4276204,18 5.5351562,18 4.6427201,18 4.069411,17.34614 4.2539062,16.5 l 0.34375,-1.5 h -1.59375 C 2.2166803,14.999062 1.3180531,15.498216 1.0996094,16.5 0.56163575,18.96735 2.2765055,21 4.8789062,21 7.4813349,21 10.05773,18.96735 10.595703,16.5 l 0.5625,-2.5 h 1 c 0.861562,0 1.691094,-0.669009 1.84375,-1.5 0.15334,-0.830999 -0.419688,-1.5 -1.28125,-1.5 h -0.90625 l 0.75,-3.5 C 12.748948,6.6538594 13.578247,6 14.470703,6 c 0.892445,0 1.434486,0.6538594 1.25,1.5 l -0.3125,1.5 h 1.59375 C 17.789179,9.0009375 18.687806,8.5017938 18.90625,7.5 19.444214,5.03265 17.729354,3 15.126953,3 Z m -0.125,8 2.84375,5.1875 -0.34375,0.65625 c -0.891535,0.207186 -1.853604,1.065844 -2.28125,2.0625 C 14.726857,20.056835 15.108197,21 16.095703,21 c 0.987374,0 2.191851,-0.943165 2.685547,-2.09375 0.09497,-0.221137 0.156438,-0.425032 0.1875,-0.625 L 20.46875,21 H 23 l -2.84375,-5.21875 0.3125,-0.65625 c 0.899006,-0.196267 1.880383,-1.055766 2.3125,-2.0625 C 23.275152,11.911897 22.893679,11 21.90625,11 c -0.987458,0 -2.193645,0.911897 -2.6875,2.0625 -0.102619,0.239044 -0.159316,0.473656 -0.1875,0.6875 L 17.501953,11 Z"
     />
</svg>
